!!!COM: Corelli, Arcangelo
!!!OPR: Sonata da camera
!!!OPS: 4
!!!ONM: 5
!!!OMV: 3
!!!OTL: Corrente
!!!OMD: Vivace
**kern	**fb	**kern	**kern
*part4	*part4	*part2	*part1
*staff4	*	*staff2	*staff1
*I"Violone & Cembalo	*	*I"Violino II	*I"Violino I
*clefF4	*	*clefG2	*clefG2
*k[]	*	*k[]	*k[]
*a:	*	*a:	*a:
*M3/4	*	*M3/4	*M3/4
*MM192	*	*MM192	*MM192
=1	=1	=1	=1
2.A	.	4.ee	4.cc
.	.	8dd	8b
.	.	4cc	4a
=2	=2	=2	=2
4G	6	4b	4ee
2F	6	2a	2aa
=3	=3	=3	=3
2.E	#	2.ee	2.gg#X
=4	=4	=4	=4
2.A	.	4.ee	4.ccc
.	.	8dd	8bb
.	.	4cc	4aa
=5	=5	=5	=5
*C:	*	*C:	*C:
4A	7	4cc	4gg
2B	5	2dd	2ff
=6	=6	=6	=6
2c	.	2g	4.ee
.	.	.	8ff
4B	6	4dd	4gg
=7	=7	=7	=7
2A	6	4.cc	4.ff
.	5 4	8dd	8gg
4G	6	4b	4ee
=8	=8	=8	=8
2F	6	4.a	4.aa
.	.	8b	8aa
4E	6	4cc	4gg
=9	=9	=9	=9
4F	.	4cc	(8ffL
.	.	.	8eeJ)
4G	5 4	4.cc	2dd
4GG	3	.	.
.	.	8b	.
=10	=10	=10	=10
2.C	.	2.cc	2.cc
=11:|!|:	=11:|!|:	=11:|!|:	=11:|!|:
*C:	*	*C:	*C:
2.c	.	4.gg	4.ee
.	.	8ff	8ff
.	.	4ee	4gg
=12	=12	=12	=12
4c	.	4ee	4gg
*d:	*	*d:	*d:
2c#X	6	2ee	2aa
=13	=13	=13	=13
4.d	.	2.a	4.ff
8e	#6\	.	8ee
4f	6	.	4dd
=14	=14	=14	=14
4G	-	4dd	4bb-X
2A	#	2cc#X	2aa
=15	=15	=15	=15
4.B-X	6	4.dd	4.gg
8F	6	8dd	8aa
4G	6 #4|	4ee	4cc#X
=16	=16	=16	=16
4D	.	(8ffL	(8ddL
.	.	8aJ)	8eeJ)
4A	5 4	4.cc#X	4.ee
4AA	#	.	.
.	.	8dd	8dd
=17	=17	=17	=17
4D	.	2.dd	2.dd
4d	.	.	.
*g:	*	*g:	*g:
4c	4 2	.	.
=18	=18	=18	=18
*e:	*	*e:	*e:
4B	#	2.ff#X	2.dd#X
4B	.	.	.
4A	#4| 2	.	.
=19	=19	=19	=19
4.G	6	2b	4.ee
8F#X	.	.	8ff#X
4E	.	4bb	4gg
=20	=20	=20	=20
4AA	#6\ 5	(8aaL	(8ff#XL
.	.	8ggJ)	8eeJ)
2BB	#	2ff#X	2dd#X
=21	=21	=21	=21
2.EE	.	2.ee	2.ee
=22	=22	=22	=22
*a:	*	*a:	*a:
2.A	.	4.ee	4.cc
.	.	8dd	8b
.	.	4cc	4a
=23	=23	=23	=23
4G	6	4b	4ee
2F	6	2a	2aa
=24	=24	=24	=24
2.E	#	2.ee	2.gg#X
=25	=25	=25	=25
2.A	.	4.ee	4.ccc
.	.	8dd	8bb
.	.	4cc	4aa
=26	=26	=26	=26
*C:	*	*C:	*C:
4A	7	4cc	4gg
2B	5	2dd	2ff
=27	=27	=27	=27
2c	.	2g	4.ee
.	.	.	8ff
4B	6	4dd	4gg
=28	=28	=28	=28
2A	6	2cc	4ff
.	5	.	2ee
4G	6	4b	.
=29	=29	=29	=29
2F	6	2a	4dd
.	5	.	2cc
4E	6	4g	.
=30	=30	=30	=30
2D	6	2f	4b
.	5	.	2a
4C	6	4e	.
=31	=31	=31	=31
*a:	*	*a:	*a:
2BB	#6\	2d	2g#X
[4AA	.	4c	4ee
=32	=32	=32	=32
4AA]	.	4a	(8ddL
.	.	.	8ccJ)
2E	5 4	4.a	2b
.	#	8g#X	.
=33	=33	=33	=33
2AA	.	2a	2a
4C	.	4ee	4aa
=34	=34	=34	=34
2D	.	2a	4ff
.	.	.	2ee
4E	#	4g#X	.
=35	=35	=35	=35
2F	6	2a	4dd
.	5	.	2cc
4E	6	4gni	.
=36	=36	=36	=36
2D	6	2f	4b
.	5	.	2a
4C	6	4e	.
=37	=37	=37	=37
2BB	#6\	2d	2g#X
[4AA	.	4c	4ee
=38	=38	=38	=38
4AA]	.	4a	(8ddL
.	.	.	8ccJ)
2E	5 4	4.a	2b
.	#	8g#X	.
=39	=39	=39	=39
2.AA	.	2.a	2.a
=:|!	=:|!	=:|!	=:|!
*-	*-	*-	*-
!!!system-decoration: [{s1,s2},s3,s4]
!!!YEM: CC BY-NC-SA 4.0; CCARH; DCML
!!!RDF**kern: i = editorial accidental